X: 2
T: Matt Peoples'
R: reel
M: 4/4
L: 1/8
K: Ador
A2eA BAeA|B2gB BAGB|A2eA BAeA|1 BAGA BAAG:|2 BAGA BAAg||ae~e2 agef|gB~B2 g2fg|ae~e2 aged|BAGA BAA2|ae~e2 agef|gB~B2 g2fg|afge fded|BAGA BAAG||


Tune 691	Setting 13747

